!!!COM:	Josquin des Pres
**kern	**kern
*part2	*part1
*staff2	*staff1
*clefF4	*clefGv2
*k[]	*k[]
*M2/1	*M2/1
=1-	=1-
1.C	[0c
2D	.
=2	=2
1E	0c_
1F	.
=3	=3
1C	0c_
[1F	.
=4	=4
2F]	0c]
2G	.
2A	.
2B	.
=5	=5
1c	1.e
[1C	.
.	2f
=6	=6
2C]	1g
2D	.
1E	[1c
=7	=7
1F	2c]
.	2d
1C	1e
=8	=8
2.F	1f
4G	.
2A	[1c
2B	.
=9	=9
1c	2c]
.	2d
[1C	2e
.	2f
=10	=10
2C]	1g
2D	.
2E	2G
2F	2A
=11	=11
2G	2B
2A	2c
2B	2d
[2c	[2e
=12	=12
4c]	4e]
4B	4d
4A	2.g
4G	.
1A	.
.	4f
.	4f
.	4e
=13	=13
1.G	0g
4F	.
4E	.
=14	=14
2A	0r
2.G	.
4F	.
4E	.
4D	.
=15	=15
0C	1.g
.	4f
.	4e
=16	=16
1r	2a
.	2.g
1c	.
.	4f
.	4e
.	4d
=17	=17
0e	0c
=18	=18
0d	1r
.	1f
=19	=19
1.c	0a
4B	.
4A	.
=20	=20
1B	0g
1c	.
=21	=21
1.d	1.f
4c	4e
4B	4d
=22	=22
1A	2e
.	2f
1G	[1g
=23	=23
1.c	2g]
.	2f
.	2e
2B	2d
=24	=24
2A	1c
2G	.
2F	[1f
2E	.
=25	=25
1D	2f]
.	4e
.	4d
1C	2e
.	[2g
=26	=26
1.c	2g]
.	2f
.	2e
2B	2d
=27	=27
2A	2f
2G	2.e
2.c	.
.	4d
.	2g
4B	.
=28	=28
2A	2f
2G	2.e
2.c	.
.	4d
.	2g
4B	.
=29	=29
2A	2f
2G	1e
1F	.
.	2d
=30	=30
[0E	0e
=31	=31
0E]	0r
=32	=32
1r	0e
[1A	.
=33	=33
1A]	0c
[1F	.
=34	=34
1F]	[0d
[1G	.
=35	=35
1G]	0d]
[1F	.
=36	=36
2F]	1.c
4E	.
4D	.
2E	.
2F	4B
.	4A
=37	=37
1.G	2B
.	2c
.	[1d
4F	.
4E	.
=38	=38
2F	2d]
2G	4c
.	4B
[1A	2c
.	2d
=39	=39
2A]	1.e
4G	.
4F	.
2G	.
2A	4d
.	4c
=40	=40
1.B	2d
.	2e
.	[1f
4A	.
4G	.
=41	=41
2A	2f]
2B	4e
.	4d
[1c	2e
.	2f
=42	=42
2c]	1.g
4B	.
4A	.
2B	.
2c	4f
.	4e
=43	=43
2F	2f
1c	2g
.	2c
4B	[2g
4A	.
=44	=44
2B	2g]
2c	4f
.	4e
2A	2f
[2G	2g
=45	=45
4G]	2e
4A	.
2.B-X	2d
.	2.f
4A	.
4F	.
4G	4e
=46	=46
4A	2.c
4B	.
2c	.
.	4d
4C	4e
4D	4f
4E	[2g
4F	.
=47	=47
2.G	4g]
.	4f
.	4e
4F	4d
2A	2f
[2G	[2e
=48	=48
2G]	4e]
.	4d
2E	1c
2F	.
2G	2B
=49	=49
4C	2.c
4D	.
4E	.
4F	4d
2G	4e
.	4f
2C	[2g
=50	=50
2.c	4g]
.	4f
.	4e
4B	4d
2A	2f
2G	[2e
=51	=51
2F	4e]
.	4d
2E	1c
1D	.
.	2B
=52	=52
2.C	0c
4D	.
2E	.
2F	.
=53	=53
2C	1r
4F	.
4G	.
4A	1c
4B	.
[2c	.
=54	=54
2c]	2.d
4B	.
4A	4c
2B	2d
2c	[2e
=55	=55
2.G	4e]
.	4d
.	4e
4A	4c
2B	2d
2c	[2e
=56	=56
2G	4e]
.	4d
2.c	4e
.	4c
.	1d
4B	.
4B	.
4A	.
=57	=57
0c	0c
==	==
*-	*-
